ix/empty-wallet-remove_twotone.svg

<svg viewBox="0 0 24 24" fill="none" xmlns="http://www.w3.org/2000/svg" height="1em" width="1em">
  <path d="M18.04 13.55C17.62 13.96 17.38 14.55 17.44 15.18C17.53 16.26 18.52 17.05 19.6 17.05H21.5V18.24C21.5 20.31 19.81 22 17.74 22H7.63C7.94 21.74 8.21 21.42 8.42 21.06C8.79 20.46 9 19.75 9 19C9 16.79 7.21 15 5 15C4.06 15 3.19 15.33 2.5 15.88V11.51C2.5 9.44001 4.19 7.75 6.26 7.75H17.74C19.81 7.75 21.5 9.44001 21.5 11.51V12.95H19.48C18.92 12.95 18.41 13.17 18.04 13.55Z" stroke="#292D32" stroke-width="1.5" stroke-linecap="round" stroke-linejoin="round"/>
  <path opacity="0.4" d="M2.5 12.4098V7.83986C2.5 6.64986 3.23 5.58982 4.34 5.16982L12.28 2.16982C13.52 1.69982 14.85 2.61985 14.85 3.94985V7.74983" stroke="#292D32" stroke-width="1.5" stroke-linecap="round" stroke-linejoin="round"/>
  <path d="M22.5608 13.9702V16.0302C22.5608 16.5802 22.1208 17.0302 21.5608 17.0502H19.6008C18.5208 17.0502 17.5308 16.2602 17.4408 15.1802C17.3808 14.5502 17.6208 13.9602 18.0408 13.5502C18.4108 13.1702 18.9208 12.9502 19.4808 12.9502H21.5608C22.1208 12.9702 22.5608 13.4202 22.5608 13.9702Z" stroke="#292D32" stroke-width="1.5" stroke-linecap="round" stroke-linejoin="round"/>
  <path opacity="0.4" d="M7 12H14" stroke="#292D32" stroke-width="1.5" stroke-linecap="round" stroke-linejoin="round"/>
  <path d="M9 19C9 19.75 8.79 20.46 8.42 21.06C8.21 21.42 7.94 21.74 7.63 22C6.93 22.63 6.01 23 5 23C3.54 23 2.27 22.22 1.58 21.06C1.21 20.46 1 19.75 1 19C1 17.74 1.58 16.61 2.5 15.88C3.19 15.33 4.06 15 5 15C7.21 15 9 16.79 9 19Z" stroke="#292D32" stroke-width="1.5" stroke-miterlimit="10" stroke-linecap="round" stroke-linejoin="round"/>
  <path d="M6.06922 20.0402L3.94922 17.9302" stroke="#292D32" stroke-width="1.5" stroke-miterlimit="10" stroke-linecap="round" stroke-linejoin="round"/>
  <path d="M6.04969 17.96L3.92969 20.0699" stroke="#292D32" stroke-width="1.5" stroke-miterlimit="10" stroke-linecap="round" stroke-linejoin="round"/>
</svg>

<svg viewBox="0 0 24 24" fill="none" xmlns="http://www.w3.org/2000/svg" height="1em" width="1em">
  <path d="M18.04 13.55c-.42.41-.66 1-.6 1.63.09 1.08 1.08 1.87 2.16 1.87h1.9v1.19c0 2.07-1.69 3.76-3.76 3.76H7.63c.31-.26.58-.58.79-.94.37-.6.58-1.31.58-2.06a3.999 3.999 0 0 0-6.5-3.12v-4.37c0-2.07 1.69-3.76 3.76-3.76h11.48c2.07 0 3.76 1.69 3.76 3.76v1.44h-2.02c-.56 0-1.07.22-1.44.6Z" stroke="#292D32" stroke-width="1.5" stroke-linecap="round" stroke-linejoin="round"/>
  <path opacity=".4" d="M2.5 12.41V7.84c0-1.19.73-2.25 1.84-2.67l7.94-3a1.9 1.9 0 0 1 2.57 1.78v3.8" stroke="#292D32" stroke-width="1.5" stroke-linecap="round" stroke-linejoin="round"/>
  <path d="M22.56 13.97v2.06c0 .55-.44 1-1 1.02H19.6c-1.08 0-2.07-.79-2.16-1.87-.06-.63.18-1.22.6-1.63.37-.38.88-.6 1.44-.6h2.08c.56.02 1 .47 1 1.02Z" stroke="#292D32" stroke-width="1.5" stroke-linecap="round" stroke-linejoin="round"/>
  <path opacity=".4" d="M7 12h7" stroke="#292D32" stroke-width="1.5" stroke-linecap="round" stroke-linejoin="round"/>
  <path d="M9 19c0 .75-.21 1.46-.58 2.06-.21.36-.48.68-.79.94-.7.63-1.62 1-2.63 1a3.97 3.97 0 0 1-3.42-1.94A3.92 3.92 0 0 1 1 19c0-1.26.58-2.39 1.5-3.12A3.999 3.999 0 0 1 9 19Zm-2.93 1.04-2.12-2.11m2.1.03-2.12 2.11" stroke="#292D32" stroke-width="1.5" stroke-miterlimit="10" stroke-linecap="round" stroke-linejoin="round"/>
</svg>
